assets/icons/side_curate.svg

<svg width="39" height="39" viewBox="0 0 39 39" fill="none" xmlns="http://www.w3.org/2000/svg">
  <g clip-path="url(#clip0_605_9168)">
    <path
      d="M20.5715 15.363C21.4221 15.363 22.0756 14.6093 21.9543 13.7673L21.4524 10.2869L23.553 13.0955C24.0635 13.7776 25.0537 13.8466 25.6526 13.2419C26.2534 12.635 26.1814 11.6312 25.5002 11.1179L22.6721 8.98804L26.1487 9.4978C26.9976 9.62241 27.7599 8.96417 27.76 8.1062C27.7599 7.2515 27.0029 6.59429 26.1565 6.71362L22.719 7.198L25.5002 5.10327C26.1816 4.58998 26.2535 3.58626 25.6526 2.97925C25.0537 2.37488 24.0634 2.44361 23.553 3.12573L21.4524 5.9353L21.9543 2.45386C22.0752 1.61212 21.422 0.858154 20.5715 0.858154C19.7245 0.858456 19.0721 1.60702 19.1877 2.44604L19.6711 5.94702L17.5979 3.1394C17.0894 2.45166 16.0945 2.37918 15.4934 2.98608C14.8948 3.59061 14.9636 4.5898 15.6389 5.10522L18.3733 7.19019L14.9954 6.71362C14.1492 6.59466 13.393 7.25169 13.3928 8.1062C13.3929 8.96395 14.1545 9.62198 15.0032 9.4978L18.4202 8.99683L15.6399 11.116C14.9641 11.6311 14.895 12.6303 15.4934 13.2351C16.0946 13.8421 17.0894 13.7697 17.5979 13.0818L19.6711 10.2751L19.1877 13.7751C19.0718 14.6144 19.7244 15.3627 20.5715 15.363Z"
      fill="url(#paint0_linear_605_9168)" />
    <path
      d="M7.62493 34.7871L4.23207 30.5121C3.14706 29.1588 2.54946 27.4796 2.53564 25.7451V16.9746C2.53564 16.2997 2.80374 15.6525 3.28095 15.1752C3.75817 14.698 4.4054 14.4299 5.08029 14.4299C5.75517 14.4299 6.4024 14.698 6.87962 15.1752C7.35683 15.6525 7.62493 16.2997 7.62493 16.9746V23.6585"
      stroke="white" stroke-width="1.5" stroke-linecap="round" stroke-linejoin="round" />
    <path
      d="M15.2588 34.7873V29.4606C15.2618 27.9552 14.8126 26.4836 13.9695 25.2365L12.0355 22.3186C11.868 22.04 11.6453 21.7985 11.3813 21.6088C11.1172 21.4191 10.8173 21.2852 10.4997 21.2154C10.1822 21.1455 9.85374 21.1411 9.53445 21.2025C9.21516 21.2638 8.91173 21.3896 8.64269 21.5722C8.16017 21.8922 7.81224 22.3785 7.6652 22.9385C7.51816 23.4985 7.58229 24.093 7.84537 24.6088L10.1695 28.4257M31.7989 34.7871L35.1917 30.5121C36.2827 29.1621 36.881 27.4807 36.8882 25.7451V16.9746C36.8882 16.2997 36.6201 15.6525 36.1429 15.1752C35.6657 14.698 35.0184 14.4299 34.3435 14.4299C33.6687 14.4299 33.0214 14.698 32.5442 15.1752C32.067 15.6525 31.7989 16.2997 31.7989 16.9746V23.5567"
      stroke="white" stroke-width="1.5" stroke-linecap="round" stroke-linejoin="round" />
    <path
      d="M24.165 34.7872V29.4604C24.162 27.955 24.6112 26.4834 25.4543 25.2363L27.3882 22.3184C27.5541 22.0379 27.7759 21.7946 28.0398 21.6034C28.3037 21.4123 28.6041 21.2776 28.9224 21.2076C29.2406 21.1376 29.5699 21.1338 29.8896 21.1965C30.2094 21.2592 30.5129 21.387 30.7811 21.572C31.2665 21.8894 31.6179 22.3746 31.7681 22.9348C31.9184 23.495 31.8569 24.0909 31.5954 24.6086L29.2543 28.4256"
      stroke="white" stroke-width="1.5" stroke-linecap="round" stroke-linejoin="round" />
  </g>
  <defs>
    <linearGradient id="paint0_linear_605_9168" x1="18.5509" y1="0.858156" x2="27.8747" y2="9.96409"
      gradientUnits="userSpaceOnUse">
      <stop stop-color="#FF97CD" />
      <stop offset="1" stop-color="#FF349D" />
    </linearGradient>
    <clipPath id="clip0_605_9168">
      <rect width="38" height="38" fill="white" transform="translate(0.5 0.179932)" />
    </clipPath>
  </defs>
</svg>

<svg xmlns="http://www.w3.org/2000/svg" width="39" height="39" fill="none" viewBox="0 0 39 39"><g clip-path="url(#a)"><path fill="url(#b)" d="M20.572 15.363c.85 0 1.504-.754 1.382-1.596l-.502-3.48 2.101 2.808c.51.683 1.5.752 2.1.147.6-.607.528-1.61-.153-2.124l-2.828-2.13 3.477.51a1.407 1.407 0 1 0 .008-2.784l-3.438.484L25.5 5.103a1.417 1.417 0 0 0 .153-2.124 1.387 1.387 0 0 0-2.1.147l-2.1 2.81.501-3.482a1.397 1.397 0 1 0-2.766-.008l.483 3.501-2.073-2.808a1.387 1.387 0 0 0-2.105-.153 1.417 1.417 0 0 0 .146 2.12l2.734 2.084-3.378-.476a1.407 1.407 0 1 0 .008 2.784l3.417-.501-2.78 2.119a1.417 1.417 0 0 0-.147 2.12 1.387 1.387 0 0 0 2.105-.154l2.073-2.807-.483 3.5a1.397 1.397 0 0 0 1.384 1.588"/><path stroke="#fff" stroke-linecap="round" stroke-linejoin="round" stroke-width="1.5" d="m7.625 34.787-3.393-4.275a7.72 7.72 0 0 1-1.696-4.767v-8.77a2.545 2.545 0 0 1 5.089 0v6.683"/><path stroke="#fff" stroke-linecap="round" stroke-linejoin="round" stroke-width="1.5" d="M15.259 34.787v-5.326a7.5 7.5 0 0 0-1.29-4.224l-1.933-2.918a2.39 2.39 0 0 0-3.393-.747 2.36 2.36 0 0 0-.798 3.037l2.324 3.817m21.63 6.361 3.393-4.275a7.63 7.63 0 0 0 1.696-4.767v-8.77a2.545 2.545 0 0 0-5.09 0v6.582"/><path stroke="#fff" stroke-linecap="round" stroke-linejoin="round" stroke-width="1.5" d="M24.165 34.787V29.46a7.5 7.5 0 0 1 1.29-4.224l1.933-2.918a2.38 2.38 0 0 1 3.393-.746 2.36 2.36 0 0 1 .814 3.037l-2.34 3.817"/></g><defs><linearGradient id="b" x1="18.551" x2="27.875" y1=".858" y2="9.964" gradientUnits="userSpaceOnUse"><stop stop-color="#ff97cd"/><stop offset="1" stop-color="#ff349d"/></linearGradient><clipPath id="a"><path fill="#fff" d="M.5.18h38v38H.5z"/></clipPath></defs></svg>
